public/icons/mannaz-symbol-icon.svg

<svg xmlns="http://www.w3.org/2000/svg" shape-rendering="geometricPrecision" text-rendering="geometricPrecision" image-rendering="optimizeQuality" fill-rule="evenodd" clip-rule="evenodd" viewBox="0 0 386 512.208"><path fill-rule="nonzero" d="M57.667 483.374c0 15.924-12.911 28.834-28.833 28.834C12.91 512.208 0 499.298 0 483.374V28.833C0 12.91 12.91 0 28.834 0a28.715 28.715 0 0116.738 5.354l148.574 90.82L342.074 4.392c13.498-8.333 31.2-4.148 39.534 9.349a28.598 28.598 0 014.284 15.092H386v454.541c0 15.924-12.91 28.834-28.834 28.834-15.922 0-28.833-12.91-28.833-28.834v-243l-135.454-80.633-135.212 83.074v240.559zM328.333 173.61V80.528l-76.566 47.505 76.566 45.577zm-193.161-46.067L57.667 80.169v94.993l77.505-47.619z"/></svg>

<svg width="386" height="513" viewBox="0 0 386 513" fill="none" xmlns="http://www.w3.org/2000/svg">
<g clip-path="url(#clip0_44_37)">
<path d="M57.667 483.374C57.667 499.298 44.756 512.208 28.834 512.208C12.91 512.208 0 499.298 0 483.374V28.833C0 12.91 12.91 2.81681e-05 28.834 2.81681e-05C34.8358 -0.008376 40.6893 1.864 45.572 5.35403L194.146 96.174L342.074 4.39203C355.572 -3.94097 373.274 0.244029 381.608 13.741C384.415 18.274 385.899 23.5014 385.892 28.833H386V483.374C386 499.298 373.09 512.208 357.166 512.208C341.244 512.208 328.333 499.298 328.333 483.374V240.374L192.879 159.741L57.667 242.815V483.374ZM328.333 173.61V80.528L251.767 128.033L328.333 173.61ZM135.172 127.543L57.667 80.169V175.162L135.172 127.543Z" fill="white"/>
</g>
<defs>
<clipPath id="clip0_44_37">
<rect width="386" height="512.208" fill="white"/>
</clipPath>
</defs>
</svg>
